X: 88
P: Longways for as many as will
M: 6/4
L: 1/4
K: C
E2G (GE)G | A2c cAc | E2G (GE)C | D3 G,3 |\
E2G (GE)G | A2c (cA)c | (ec)e (dB)G | c3 C3 |]
c |\
e2g (ge)g | B2d (dB)d | E2G (GE)C | D3 G,3 |\
E2G (GE)G | A2c (cA)c | (ec)e (dB)G | c3 C3 |]

